X:50
T: Kinard Polka
S: M.Mulvihill
Z: B.Black
R: polka
M: 2/4
L: 1/8
K: G
A | BG G/A/G/F/ | DG G>A | BG GF/G/ |\
Ad d/e/d/c/ |
BG G/A/G/F/ | DG GB/d/ | ed cA | AG G :|
A | Bd g2 | fe e2 | cd f2 | ed d/e/d/c/ |
Bd g2 | fe a>g | fd ef ag g :|
